X:1
T:[ID 1-60b]
T:[ID 1-60b]
T:Bezeichnung standardisiert: Boure Boure
T:Urheber unbekannt Datum in der hier transkribierten schriftlichen Quelle: vermutlich vor 1767
C:Urheber unbekannt
C:Datum in der hier transkribierten schriftlichen Quelle: vermutlich vor 1767
L:1/8
M:2/2
K:G
V:1 treble 
V:1
 B2 AG B2 c2 | d2 de d2 c2 | B2 AG B2 c2 | d4 d4 :: e2 ec d2 dB | c2 BA B2 d2 | B2 AB cBAG | %7
 A4 D4 | e2 ec d2 dB | c2 BA B2 d2 | B2 AG BAGF | G4 G,4 :| %12

